X: 14
T:Dornoch Links
% Nottingham Music Database
S:KCC p5, via EF
M:4/4
L:1/4
K:A
a/2f/2|"A"eA cB/2c/2|"A"eA "D"Aa/2f/2|"A"ec cB/2c/2|"Bm"fB "E7"Bc/2d/2|
"A"e/2f/2e/2d/2 cB/2A/2|"A"c"g#"e "F#m"ac|"Bm"df "E7"Be/2d/2|"A"cA A:||:
g|"A"a2 "E7"ef/2g/2|"A"ae/2d/2 cB/2A/2|"A"aa e/2f/2e/2c/2|"Bm"dB "E7"Be|
"A"a2 "E7"ef/2g/2|"A"a/2e/2f/2d/2 cB/2A/2|"D"df "E7"Be/2d/2|"A"cA A:|


